assets/svg/icon_search_last.svg

<svg width="24" height="24" viewBox="0 0 24 24" fill="none" xmlns="http://www.w3.org/2000/svg">
<path d="M12.1786 7.14286C12.1786 6.72864 11.8428 6.39286 11.4286 6.39286C11.0144 6.39286 10.6786 6.72864 10.6786 7.14286H12.1786ZM11.4286 13.1429H10.6786C10.6786 13.3936 10.8039 13.6278 11.0125 13.7669L11.4286 13.1429ZM14.4411 16.0526C14.7858 16.2824 15.2514 16.1892 15.4812 15.8446C15.7109 15.5 15.6178 15.0343 15.2732 14.8045L14.4411 16.0526ZM12 3.25C7.16912 3.25 3.25 7.16912 3.25 12H4.75C4.75 7.99755 7.99755 4.75 12 4.75V3.25ZM3.25 12C3.25 16.8309 7.16912 20.75 12 20.75V19.25C7.99755 19.25 4.75 16.0025 4.75 12H3.25ZM12 20.75C16.8309 20.75 20.75 16.8309 20.75 12H19.25C19.25 16.0025 16.0025 19.25 12 19.25V20.75ZM20.75 12C20.75 7.16912 16.8309 3.25 12 3.25V4.75C16.0025 4.75 19.25 7.99755 19.25 12H20.75ZM10.6786 7.14286V13.1429H12.1786V7.14286H10.6786ZM11.0125 13.7669L14.4411 16.0526L15.2732 14.8045L11.8446 12.5188L11.0125 13.7669Z" fill="#0166FF"/>
</svg>

<svg xmlns="http://www.w3.org/2000/svg" width="24" height="24" fill="none"><path fill="#0166FF" d="M12.179 7.143a.75.75 0 0 0-1.5 0zm-.75 6h-.75c0 .25.125.485.333.624zm3.012 2.91a.75.75 0 0 0 .832-1.248zM12 3.25c-4.83 0-8.75 3.92-8.75 8.75h1.5A7.25 7.25 0 0 1 12 4.75zM3.25 12c0 4.83 3.92 8.75 8.75 8.75v-1.5A7.25 7.25 0 0 1 4.75 12zM12 20.75c4.83 0 8.75-3.92 8.75-8.75h-1.5A7.25 7.25 0 0 1 12 19.25zM20.75 12c0-4.83-3.92-8.75-8.75-8.75v1.5A7.25 7.25 0 0 1 19.25 12zM10.679 7.143v6h1.5v-6zm.333 6.624 3.43 2.286.831-1.248-3.428-2.286z"/></svg>
